; generated by PrusaSlicer 2.4.0+win64 on 2022-01-18 at 03:37:29 UTC

; 

; external perimeters extrusion width = 0.45mm
; perimeters extrusion width = 0.45mm
; infill extrusion width = 0.45mm
; solid infill extrusion width = 0.45mm
; top infill extrusion width = 0.40mm
; first layer extrusion width = 0.42mm

M73 P0 R63
M73 Q0 S63
M201 X1000 Y1000 Z200 E5000 ; sets maximum accelerations, mm/sec^2
M203 X200 Y200 Z12 E120 ; sets maximum feedrates, mm/sec
M204 P1250 R1250 T1250 ; sets acceleration (P, T) and retract acceleration (R), mm/sec^2
M205 X8.00 Y8.00 Z0.40 E4.50 ; sets the jerk limits, mm/sec
M205 S0 T0 ; sets the minimum extruding and travel feed rate, mm/sec
M107
;TYPE:Custom
M862.3 P "MK3S" ; printer model check
M862.1 P0.4 ; nozzle diameter check
M115 U3.10.0 ; tell printer latest fw version
G90 ; use absolute coordinates
M83 ; extruder relative mode
M104 S240 ; set extruder temp
M140 S85 ; set bed temp
M190 S85 ; wait for bed temp
M109 S240 ; wait for extruder temp
G28 W ; home all without mesh bed level
G80 ; mesh bed leveling
G1 Y-3.0 F1000.0 ; go outside print area
G92 E0.0
G1 X60.0 E9.0 F1000.0 ; intro line
G1 X100.0 E12.5 F1000.0 ; intro line
G92 E0.0
M221 S95

; Don't change E values below. Excessive value can damage the printer.
M907 E430 ; set extruder motor current
G21 ; set units to millimeters
G90 ; use absolute coordinates
M83 ; use relative distances for extrusion
M900 K0.08 ; Filament gcode LA 1.5
M900 K45 ; Filament gcode LA 1.0
M107
;LAYER_CHANGE
;Z:0.2
;HEIGHT:0.2
;BEFORE_LAYER_CHANGE
G92 E0.0
;0.2


G1 E-1.4 F2100
M73 P0 R62
G1 Z.2 F10800
;AFTER_LAYER_CHANGE
;0.2
G1 Z.4
G1 X84.119 Y94.08
G1 Z.2
G1 E1.4 F2100
M204 S1000
;TYPE:Skirt/Brim
;WIDTH:0.42
G1 F1200
G1 X84.731 Y93.695 E.02266
G1 X85.222 Y93.499 E.01658
G1 X86.197 Y93.349 E.03094
G1 X111.031 Y93.36 E.77866
G1 X164.563 Y105.44 E1.72067
G1 X165.096 Y105.616 E.01758
G1 X165.881 Y106.08 E.0286
G1 X166.404 Y106.6 E.02311
G1 X166.763 Y107.144 E.02043
G1 X167.038 Y107.862 E.0241
G1 X167.151 Y108.7 E.02652
G1 X167.151 Y113.3 E.14423
G1 X166.984 Y114.325 E.03257
G1 X166.763 Y114.856 E.01802
G1 X166.404 Y115.4 E.02043
G1 X165.661 Y116.082 E.03162
G1 X164.778 Y116.501 E.03064
G1 X163.803 Y116.651 E.03094
G1 X86.197 Y116.651 E2.43328
G1 X85.295 Y116.523 E.02858
G1 X84.731 Y116.305 E.01896
G1 X84.119 Y115.92 E.02266
G1 X83.596 Y115.4 E.02311
G1 X83.238 Y114.856 E.02043
G1 X83.016 Y114.325 E.01803
G1 X82.853 Y113.44 E.02823
G1 X82.849 Y96.7 E.52487
G1 X82.962 Y95.862 E.02652
G1 X83.171 Y95.278 E.01945
G1 X83.596 Y94.6 E.02508
G1 X84.076 Y94.123 E.02123
; printing object HX711 Test Jig v1.stl id:0 copy 0
;WIPE_START
G1 F8640
G1 X84.731 Y93.695 E-.18045
G1 X85.222 Y93.499 E-.12212
G1 X86.197 Y93.349 E-.22788
G1 X89.66 Y93.35 E-.79955
;WIPE_END
G1 E-.07 F2100
G1 Z.4 F10800
G1 X86.917 Y97.017
G1 Z.2
G1 E1.4 F2100
;TYPE:Perimeter
G1 F1200
G1 X110.483 Y97.017 E.73892
G1 X110.483 Y100.983 E.12437
G1 X94.68 Y100.983 E.49551
G1 X94.225 Y101.026 E.01431
G1 X93.959 Y101.088 E.00859
G1 X93.605 Y101.22 E.01181
G1 X93.288 Y101.385 E.01121
G1 X93.063 Y101.539 E.00856
G1 X92.702 Y101.868 E.01531
G1 X92.408 Y102.258 E.01531
G1 X92.272 Y102.501 E.00872
G1 X92.096 Y102.956 E.01531
G1 X92.004 Y103.449 E.01573
G1 X92.004 Y106.551 E.09726
G1 X92.095 Y107.04 E.01561
G1 X92.231 Y107.406 E.01224
G1 X92.403 Y107.736 E.01164
G1 X92.702 Y108.132 E.01557
G1 X93.063 Y108.461 E.01531
G1 X93.512 Y108.739 E.01658
G1 X93.955 Y108.911 E.01488
G1 X94.225 Y108.974 E.00872
G1 X94.68 Y109.017 E.01431
G1 X163.483 Y109.017 E2.15728
G1 X163.477 Y112.983 E.12437
M73 Q0 S62
G1 X86.517 Y112.983 E2.41304
G1 X86.517 Y97.017 E.50063
G1 X86.857 Y97.017 E.01066
G1 X86.181 Y96.648 F10800
;TYPE:External perimeter
G1 F1200
G1 X110.773 Y96.64 E.77109
G1 X110.842 Y96.667 E.00232
G1 X110.86 Y96.719 E.00173
G1 X110.86 Y101.281 E.14306
G1 X110.819 Y101.352 E.00256
G1 X94.697 Y101.36 E.5055
G1 X94.286 Y101.399 E.01294
G1 X94.068 Y101.45 E.00704
G1 X93.759 Y101.565 E.01034
G1 X93.482 Y101.709 E.00977
G1 X93.297 Y101.835 E.00702
G1 X92.982 Y102.123 E.01339
G1 X92.725 Y102.464 E.01339
G1 X92.615 Y102.661 E.00708
G1 X92.46 Y103.059 E.01339
G1 X92.381 Y103.484 E.01354
G1 X92.381 Y106.516 E.09506
G1 X92.46 Y106.939 E.0135
G1 X92.577 Y107.253 E.0105
G1 X92.723 Y107.534 E.00992
G1 X92.982 Y107.877 E.01349
G1 X93.297 Y108.165 E.01339
G1 X93.673 Y108.397 E.01384
G1 X94.067 Y108.55 E.01324
G1 X94.286 Y108.601 E.00708
G1 X94.697 Y108.64 E.01294
G1 X163.773 Y108.64 E2.16583
G1 X163.842 Y108.667 E.00231
G1 X163.86 Y108.719 E.00172
G1 X163.854 Y113.311 E.144
G1 X163.819 Y113.352 E.00167
G1 X163.773 Y113.36 E.00147
G1 X86.181 Y113.352 E2.43287
G1 X86.14 Y113.281 E.00256
M73 P1 R62
M73 Q1 S62
G1 X86.144 Y96.694 E.52009
G1 X86.527 Y96.848 F10800
;WIPE_START
G1 F8640
G1 X91.903 Y96.681 E-1.33
;WIPE_END
G1 E-.07 F2100
G1 Z.4 F10800
G1 X163.369 Y109.891
G1 Z.2
G1 E1.4 F2100
;TYPE:Solid infill
;WIDTH:0.420149
G1 F1200
G1 X162.777 Y109.299 E.02625
G1 X162.243 Y109.299 E.01673
G1 X163.198 Y110.254 E.04237
G1 X163.198 Y110.787 E.01671
G1 X161.71 Y109.299 E.066
G1 X161.176 Y109.299 E.01673
G1 X163.197 Y111.32 E.08963
G1 X163.196 Y111.853 E.01671
G1 X160.643 Y109.299 E.11326
G1 X160.109 Y109.299 E.01673
G1 X163.195 Y112.385 E.13689
G1 X163.195 Y112.701 E.00989
G1 X162.977 Y112.701 E.00683
G1 X159.576 Y109.299 E.15087
G1 X159.042 Y109.299 E.01673
G1 X162.444 Y112.701 E.15087
G1 X161.91 Y112.701 E.01673
G1 X158.509 Y109.299 E.15087
G1 X157.975 Y109.299 E.01673
G1 X161.377 Y112.701 E.15087
G1 X160.843 Y112.701 E.01673
G1 X157.442 Y109.299 E.15087
G1 X156.908 Y109.299 E.01673
G1 X160.31 Y112.701 E.15087
G1 X159.776 Y112.701 E.01673
G1 X156.375 Y109.299 E.15087
G1 X155.842 Y109.299 E.01673
G1 X159.243 Y112.701 E.15087
G1 X158.709 Y112.701 E.01673
G1 X155.308 Y109.299 E.15087
G1 X154.775 Y109.299 E.01673
G1 X158.176 Y112.701 E.15087
G1 X157.642 Y112.701 E.01673
G1 X154.241 Y109.299 E.15087
G1 X153.708 Y109.299 E.01673
G1 X157.109 Y112.701 E.15087
G1 X156.575 Y112.701 E.01673
G1 X153.174 Y109.299 E.15087
G1 X152.641 Y109.299 E.01673
G1 X156.042 Y112.701 E.15087
G1 X155.508 Y112.701 E.01673
G1 X152.107 Y109.299 E.15087
G1 X151.574 Y109.299 E.01673
G1 X154.975 Y112.701 E.15087
G1 X154.441 Y112.701 E.01673
G1 X151.04 Y109.299 E.15087
G1 X150.507 Y109.299 E.01673
G1 X153.908 Y112.701 E.15087
G1 X153.374 Y112.701 E.01673
G1 X149.973 Y109.299 E.15087
G1 X149.44 Y109.299 E.01673
G1 X152.841 Y112.701 E.15087
G1 X152.307 Y112.701 E.01673
G1 X148.906 Y109.299 E.15087
G1 X148.373 Y109.299 E.01673
G1 X151.774 Y112.701 E.15087
G1 X151.24 Y112.701 E.01673
G1 X147.839 Y109.299 E.15087
G1 X147.306 Y109.299 E.01673
G1 X150.707 Y112.701 E.15087
G1 X150.173 Y112.701 E.01673
G1 X146.772 Y109.299 E.15087
G1 X146.239 Y109.299 E.01673
G1 X149.64 Y112.701 E.15087
G1 X149.106 Y112.701 E.01673
G1 X145.705 Y109.299 E.15087
G1 X145.172 Y109.299 E.01673
G1 X148.573 Y112.701 E.15087
G1 X148.04 Y112.701 E.01673
G1 X144.638 Y109.299 E.15087
G1 X144.105 Y109.299 E.01673
G1 X147.506 Y112.701 E.15087
G1 X146.973 Y112.701 E.01673
G1 X143.571 Y109.299 E.15087
G1 X143.038 Y109.299 E.01673
G1 X146.439 Y112.701 E.15087
G1 X145.906 Y112.701 E.01673
G1 X142.504 Y109.299 E.15087
G1 X141.971 Y109.299 E.01673
G1 X145.372 Y112.701 E.15087
G1 X144.839 Y112.701 E.01673
G1 X141.437 Y109.299 E.15087
G1 X140.904 Y109.299 E.01673
G1 X144.305 Y112.701 E.15087
G1 X143.772 Y112.701 E.01673
G1 X140.371 Y109.299 E.15087
G1 X139.837 Y109.299 E.01673
G1 X143.238 Y112.701 E.15087
G1 X142.705 Y112.701 E.01673
G1 X139.304 Y109.299 E.15087
G1 X138.77 Y109.299 E.01673
G1 X142.171 Y112.701 E.15087
G1 X141.638 Y112.701 E.01673
G1 X138.237 Y109.299 E.15087
G1 X137.703 Y109.299 E.01673
G1 X141.104 Y112.701 E.15087
G1 X140.571 Y112.701 E.01673
G1 X137.17 Y109.299 E.15087
G1 X136.636 Y109.299 E.01673
G1 X140.037 Y112.701 E.15087
G1 X139.504 Y112.701 E.01673
G1 X136.103 Y109.299 E.15087
G1 X135.569 Y109.299 E.01673
G1 X138.97 Y112.701 E.15087
G1 X138.437 Y112.701 E.01673
G1 X135.036 Y109.299 E.15087
G1 X134.502 Y109.299 E.01673
G1 X137.903 Y112.701 E.15087
G1 X137.37 Y112.701 E.01673
G1 X133.969 Y109.299 E.15087
G1 X133.435 Y109.299 E.01673
G1 X136.836 Y112.701 E.15087
G1 X136.303 Y112.701 E.01673
G1 X132.902 Y109.299 E.15087
G1 X132.368 Y109.299 E.01673
G1 X135.769 Y112.701 E.15087
G1 X135.236 Y112.701 E.01673
G1 X131.835 Y109.299 E.15087
G1 X131.301 Y109.299 E.01673
G1 X134.702 Y112.701 E.15087
G1 X134.169 Y112.701 E.01673
G1 X130.768 Y109.299 E.15087
G1 X130.234 Y109.299 E.01673
G1 X133.635 Y112.701 E.15087
G1 X133.102 Y112.701 E.01673
G1 X129.701 Y109.299 E.15087
G1 X129.167 Y109.299 E.01673
G1 X132.569 Y112.701 E.15087
G1 X132.035 Y112.701 E.01673
G1 X128.634 Y109.299 E.15087
G1 X128.1 Y109.299 E.01673
G1 X131.502 Y112.701 E.15087
G1 X130.968 Y112.701 E.01673
G1 X127.567 Y109.299 E.15087
G1 X127.033 Y109.299 E.01673
G1 X130.435 Y112.701 E.15087
G1 X129.901 Y112.701 E.01673
G1 X126.5 Y109.299 E.15087
G1 X125.966 Y109.299 E.01673
G1 X129.368 Y112.701 E.15087
G1 X128.834 Y112.701 E.01673
G1 X125.433 Y109.299 E.15087
G1 X124.9 Y109.299 E.01673
G1 X128.301 Y112.701 E.15087
G1 X127.767 Y112.701 E.01673
G1 X124.366 Y109.299 E.15087
G1 X123.833 Y109.299 E.01673
G1 X127.234 Y112.701 E.15087
G1 X126.7 Y112.701 E.01673
G1 X123.299 Y109.299 E.15087
G1 X122.766 Y109.299 E.01673
G1 X126.167 Y112.701 E.15087
G1 X125.633 Y112.701 E.01673
G1 X122.232 Y109.299 E.15087
G1 X121.699 Y109.299 E.01673
G1 X125.1 Y112.701 E.15087
G1 X124.566 Y112.701 E.01673
G1 X121.165 Y109.299 E.15087
G1 X120.632 Y109.299 E.01673
G1 X124.033 Y112.701 E.15087
G1 X123.499 Y112.701 E.01673
G1 X120.098 Y109.299 E.15087
G1 X119.565 Y109.299 E.01673
G1 X122.966 Y112.701 E.15087
G1 X122.432 Y112.701 E.01673
G1 X119.031 Y109.299 E.15087
G1 X118.498 Y109.299 E.01673
G1 X121.899 Y112.701 E.15087
G1 X121.365 Y112.701 E.01673
G1 X117.964 Y109.299 E.15087
G1 X117.431 Y109.299 E.01673
G1 X120.832 Y112.701 E.15087
G1 X120.298 Y112.701 E.01673
M73 P1 R61
G1 X116.897 Y109.299 E.15087
G1 X116.364 Y109.299 E.01673
G1 X119.765 Y112.701 E.15087
G1 X119.231 Y112.701 E.01673
G1 X115.83 Y109.299 E.15087
G1 X115.297 Y109.299 E.01673
G1 X118.698 Y112.701 E.15087
G1 X118.165 Y112.701 E.01673
G1 X114.763 Y109.299 E.15087
G1 X114.23 Y109.299 E.01673
G1 X117.631 Y112.701 E.15087
G1 X117.098 Y112.701 E.01673
G1 X113.696 Y109.299 E.15087
G1 X113.163 Y109.299 E.01673
G1 X116.564 Y112.701 E.15087
G1 X116.031 Y112.701 E.01673
G1 X112.629 Y109.299 E.15087
G1 X112.096 Y109.299 E.01673
G1 X115.497 Y112.701 E.15087
G1 X114.964 Y112.701 E.01673
G1 X111.562 Y109.299 E.15087
G1 X111.029 Y109.299 E.01673
G1 X114.43 Y112.701 E.15087
G1 X113.897 Y112.701 E.01673
G1 X110.496 Y109.299 E.15087
G1 X109.962 Y109.299 E.01673
G1 X113.363 Y112.701 E.15087
G1 X112.83 Y112.701 E.01673
G1 X109.429 Y109.299 E.15087
G1 X108.895 Y109.299 E.01673
G1 X112.296 Y112.701 E.15087
G1 X111.763 Y112.701 E.01673
G1 X108.362 Y109.299 E.15087
G1 X107.828 Y109.299 E.01673
G1 X111.229 Y112.701 E.15087
G1 X110.696 Y112.701 E.01673
G1 X107.295 Y109.299 E.15087
G1 X106.761 Y109.299 E.01673
G1 X110.162 Y112.701 E.15087
G1 X109.629 Y112.701 E.01673
G1 X106.228 Y109.299 E.15087
G1 X105.694 Y109.299 E.01673
G1 X109.095 Y112.701 E.15087
G1 X108.562 Y112.701 E.01673
G1 X105.161 Y109.299 E.15087
G1 X104.627 Y109.299 E.01673
G1 X108.028 Y112.701 E.15087
G1 X107.495 Y112.701 E.01673
G1 X104.094 Y109.299 E.15087
G1 X103.56 Y109.299 E.01673
G1 X106.961 Y112.701 E.15087
G1 X106.428 Y112.701 E.01673
G1 X103.027 Y109.299 E.15087
G1 X102.493 Y109.299 E.01673
G1 X105.894 Y112.701 E.15087
G1 X105.361 Y112.701 E.01673
G1 X101.96 Y109.299 E.15087
G1 X101.426 Y109.299 E.01673
G1 X104.827 Y112.701 E.15087
G1 X104.294 Y112.701 E.01673
G1 X100.893 Y109.299 E.15087
G1 X100.359 Y109.299 E.01673
G1 X103.76 Y112.701 E.15087
G1 X103.227 Y112.701 E.01673
G1 X99.826 Y109.299 E.15087
G1 X99.292 Y109.299 E.01673
G1 X102.694 Y112.701 E.15087
G1 X102.16 Y112.701 E.01673
G1 X98.759 Y109.299 E.15087
G1 X98.225 Y109.299 E.01673
G1 X101.627 Y112.701 E.15087
G1 X101.093 Y112.701 E.01673
G1 X97.692 Y109.299 E.15087
G1 X97.158 Y109.299 E.01673
G1 X100.56 Y112.701 E.15087
G1 X100.026 Y112.701 E.01673
G1 X96.625 Y109.299 E.15087
G1 X96.091 Y109.299 E.01673
G1 X99.493 Y112.701 E.15087
G1 X98.959 Y112.701 E.01673
G1 X95.558 Y109.299 E.15087
G1 X95.025 Y109.299 E.01673
G1 X98.426 Y112.701 E.15087
G1 X97.892 Y112.701 E.01673
M73 Q2 S62
G1 X94.285 Y109.093 E.16001
;WIPE_START
G1 F8640
M73 P2 R61
G1 X97.892 Y112.701 E-1.17789
G1 X98.426 Y112.701 E-.12318
G1 X98.337 Y112.612 E-.02892
;WIPE_END
G1 E-.07 F2100
G1 Z.4 F10800
G1 X109.529 Y97.13
G1 Z.2
G1 E1.4 F2100
G1 F1200
G1 X110.201 Y97.801 E.02979
G1 X110.201 Y98.335 E.01673
G1 X109.165 Y97.299 E.04593
G1 X108.632 Y97.299 E.01673
G1 X110.201 Y98.868 E.0696
G1 X110.201 Y99.402 E.01673
G1 X108.098 Y97.299 E.09326
G1 X107.565 Y97.299 E.01673
G1 X110.201 Y99.935 E.11693
G1 X110.201 Y100.469 E.01673
G1 X107.031 Y97.299 E.14059
G1 X106.498 Y97.299 E.01673
G1 X109.899 Y100.701 E.15087
G1 X109.365 Y100.701 E.01673
G1 X105.964 Y97.299 E.15087
G1 X105.431 Y97.299 E.01673
G1 X108.832 Y100.701 E.15087
G1 X108.298 Y100.701 E.01673
G1 X104.897 Y97.299 E.15087
G1 X104.364 Y97.299 E.01673
G1 X107.765 Y100.701 E.15087
G1 X107.231 Y100.701 E.01673
G1 X103.83 Y97.299 E.15087
G1 X103.297 Y97.299 E.01673
G1 X106.698 Y100.701 E.15087
G1 X106.165 Y100.701 E.01673
G1 X102.763 Y97.299 E.15087
G1 X102.23 Y97.299 E.01673
G1 X105.631 Y100.701 E.15087
G1 X105.098 Y100.701 E.01673
G1 X101.696 Y97.299 E.15087
G1 X101.163 Y97.299 E.01673
G1 X104.564 Y100.701 E.15087
G1 X104.031 Y100.701 E.01673
G1 X100.629 Y97.299 E.15087
G1 X100.096 Y97.299 E.01673
G1 X103.497 Y100.701 E.15087
G1 X102.964 Y100.701 E.01673
G1 X99.562 Y97.299 E.15087
G1 X99.029 Y97.299 E.01673
G1 X102.43 Y100.701 E.15087
G1 X101.897 Y100.701 E.01673
G1 X98.495 Y97.299 E.15087
G1 X97.962 Y97.299 E.01673
G1 X101.363 Y100.701 E.15087
G1 X100.83 Y100.701 E.01673
G1 X97.429 Y97.299 E.15087
G1 X96.895 Y97.299 E.01673
G1 X100.296 Y100.701 E.15087
G1 X99.763 Y100.701 E.01673
G1 X96.362 Y97.299 E.15087
G1 X95.828 Y97.299 E.01673
G1 X99.229 Y100.701 E.15087
G1 X98.696 Y100.701 E.01673
M73 Q2 S61
G1 X95.295 Y97.299 E.15087
G1 X94.761 Y97.299 E.01673
G1 X98.162 Y100.701 E.15087
G1 X97.629 Y100.701 E.01673
G1 X94.228 Y97.299 E.15087
G1 X93.694 Y97.299 E.01673
G1 X97.095 Y100.701 E.15087
G1 X96.562 Y100.701 E.01673
G1 X93.161 Y97.299 E.15087
G1 X92.627 Y97.299 E.01673
G1 X96.028 Y100.701 E.15087
G1 X95.495 Y100.701 E.01673
G1 X92.094 Y97.299 E.15087
G1 X91.56 Y97.299 E.01673
G1 X94.961 Y100.701 E.15087
G1 X94.448 Y100.721 E.01611
G1 X91.027 Y97.299 E.15178
G1 X90.493 Y97.299 E.01673
G1 X93.985 Y100.792 E.15491
G1 X93.586 Y100.925 E.01322
G1 X89.96 Y97.299 E.16085
G1 X89.426 Y97.299 E.01673
G1 X93.225 Y101.099 E.16853
G1 X92.901 Y101.307 E.01211
G1 X88.893 Y97.299 E.17779
G1 X88.359 Y97.299 E.01673
G1 X92.62 Y101.56 E.189
G1 X92.492 Y101.677 E.00543
G1 X92.368 Y101.841 E.00647
G1 X87.826 Y97.299 E.20148
G1 X87.292 Y97.299 E.01673
G1 X92.144 Y102.151 E.2152
G1 X91.967 Y102.507 E.01248
G1 X86.799 Y97.34 E.22921
G1 X86.799 Y97.873 E.01673
G1 X91.82 Y102.894 E.22271
G1 X91.736 Y103.343 E.01434
G1 X86.799 Y98.407 E.21898
G1 X86.799 Y98.94 E.01673
G1 X91.721 Y103.862 E.21832
G1 X91.721 Y104.396 E.01673
G1 X86.799 Y99.474 E.21832
G1 X86.799 Y100.007 E.01673
G1 X91.721 Y104.929 E.21832
G1 X91.721 Y105.463 E.01673
G1 X86.799 Y100.541 E.21832
G1 X86.799 Y101.074 E.01673
G1 X91.721 Y105.996 E.21832
G1 X91.721 Y106.53 E.01673
G1 X86.799 Y101.608 E.21832
G1 X86.799 Y102.141 E.01673
G1 X91.85 Y107.192 E.22404
G1 X91.972 Y107.521 E.01102
G1 X92.163 Y107.887 E.01294
G1 X92.492 Y108.323 E.01715
G1 X92.892 Y108.688 E.01696
G1 X93.386 Y108.993 E.01823
G1 X93.82 Y109.162 E.0146
G1 X97.359 Y112.701 E.15699
G1 X96.825 Y112.701 E.01673
G1 X86.799 Y102.675 E.44474
G1 X86.799 Y103.208 E.01673
G1 X96.292 Y112.701 E.42107
G1 X95.758 Y112.701 E.01673
G1 X86.799 Y103.742 E.39741
G1 X86.799 Y104.275 E.01673
G1 X95.225 Y112.701 E.37374
G1 X94.691 Y112.701 E.01673
G1 X86.799 Y104.809 E.35008
